X: 20772
Q: "Andante"
M: 6/8
L: 1/8
K: G
(d>e)d (dBG) | g3 z2d | e>fg (ge)a | (g3 f2)B/c/ |\
(d>ed) (dBG) | g3 z2e | f>ed (AB)^c | d3 z2d/d/ |\
(d>e)d (def) | {a}g3 z2d |
e>fg (ge)a | g3 f2d |\
b>ag (gf)e | d3 z2d | (ec').a ({g}fe).f | {a}g3 e3 |\
d3- Hd2- d//(e//d//c//) | B3 d3 | (e>f)g (g>a)f | {a}g3 z2 |]


